!!!SOCIAL_FUNCTION:	isleta
!!!PDT:	1957
!!!OTL: No_53_Final_Song_of_Hunci_Dance.krn
!!!LING_GROUP: Keresan
!!!LANG: Tone
!!!REG: Southwest
**kern
*staff1
=1-
*clefF4
*k[f#]
*M3/4
2r
8r
8E\
=2!|:
4d\
4B\
8B\L
8d\J
=3
*M2/4
4B\
8B\L
8A\J
=4
*M5/8
8G\L
8G\J
4r
8G\
=5
*M3/4
4d\
4B\
8B\L
8d\J
=6
*M2/4
4B\
8B\L
8A\J
=7
*M5/8
8G\L
8G\J
4r
8G\
=8
*M3/4
4B\
4B\
8G\L
8B\J
=9
*M2/4
4G\
8D\L
8D\J
=10
*M3/8
8BB/
4BB/
=11
*M2/4
8D\L
8D\J
8BB/L
8D/J
=12
2D\
=13
*M3/4
4D\
8D\L
8D\J
16D\
16r
8G\
=14
*M2/4
8G\L
8E\J
4E\
=15
*M5/8
8G\L
8G\
8G\
8E\
8E\J
=16
8D\L
8E\
8D\
8BB\
8BB\J
=17
*M3/4
2.BB/
=18
*M2/4
4BB/
8r
8G\
=19
8E\L
8E\J
4E\
=20
*M5/8
8G\L
8G\
8G\
8E\
8E\J
=21
8D\L
8E\
8D\
8BB\
8BB\J
=22
*M3/4
2.BB/
=23
*M2/4
4BB/
8r
8E\
=24
4D\
4D\
=25
8BB/L
8D/J
8D\L
8E\J
=26
*M3/8
8E\L
8D\
8D\J
=27
*M3/4
2.D\
=28
*M2/4
4D\
8r
8B\
=29:|!
*M2/4
4D\
8r
8G\
=30
8E\L
8E\J
4E\
=31
*M5/8
8G\L
8G\
8G\
8E\
8E\J
=32
8D\L
8E\
8D\
8BB\
8BB\J
=33
*M2/4
2BB/
=34
4BB/
4r
=35
4BB/
8BB/L
8BB/J
=36
2BB/
==
*-
